X:905
T:Tae the Beggin'
R:reel
D:Kevin Crawford: In Good Company
Z:Devin McCabe
M:C|
L:1/8
K:EMin
g2fg agfa|gefg d~B3|g2fg agfa|1gefd ~e3f:|2gefd ~e3g|
!d~B3 dGBd|dGBd cAAe|d~B3 defd|1g/2a/2g fd eage:|2g/2a/2g fd edef||
